packages/kaspersky-hexa-ui-icons/src/iconsSVGs/16x12/FlagIs.svg

<svg width="16" height="12" viewBox="0 0 16 12" fill="none" xmlns="http://www.w3.org/2000/svg">
<g clip-path="url(#clip0_41813_2787)">
<rect width="16" height="12" rx="2" fill="white"/>
<mask id="mask0_41813_2787" style="mask-type:luminance" maskUnits="userSpaceOnUse" x="0" y="0" width="16" height="12">
<rect width="16" height="12" rx="2" fill="white"/>
</mask>
<g mask="url(#mask0_41813_2787)">
<rect width="16" height="12" fill="#0E4CB5"/>
<path fill-rule="evenodd" clip-rule="evenodd" d="M0 7.2H4.57143V12H6.85714V7.2H16V4.8H6.85714V0H4.57143V4.8H0V7.2Z" fill="white"/>
<path fill-rule="evenodd" clip-rule="evenodd" d="M0 6.4H5.33333V12H6.09524V6.4H16V5.6H6.09524V0H5.33333V5.6H0V6.4Z" fill="#EB363A"/>
</g>
</g>
<defs>
<clipPath id="clip0_41813_2787">
<rect width="16" height="12" fill="white"/>
</clipPath>
</defs>
</svg>

<svg xmlns="http://www.w3.org/2000/svg" width="16" height="12" fill="none" viewBox="0 0 16 12"><g clip-path="url(#a)"><rect width="16" height="12" fill="#fff" rx="2"/><mask id="b" width="16" height="12" x="0" y="0" maskUnits="userSpaceOnUse" style="mask-type:luminance"><rect width="16" height="12" fill="#fff" rx="2"/></mask><g mask="url(#b)"><path fill="#0e4cb5" d="M0 0h16v12H0z"/><path fill="#fff" fill-rule="evenodd" d="M0 7.2h4.5714V12h2.2857V7.2H16V4.8H6.8571V0H4.5714v4.8H0z" clip-rule="evenodd"/><path fill="#eb363a" fill-rule="evenodd" d="M0 6.4h5.3333V12h.762V6.4H16v-.8H6.0952V0h-.7619v5.6H0z" clip-rule="evenodd"/></g></g><defs><clipPath id="a"><path fill="#fff" d="M0 0h16v12H0z"/></clipPath></defs></svg>
